X: 1
T: The Rose Tree - Bampton
C: Trad
R: Rag Morris
M: 4/4
L: 1/4
K: D
Z: ABC transcription by Verge Roller, Mackin & Michael Greene
r: 16
 f/e/ | "D" dB AF | A/B/A/F/ AA |  dd "A" ed/e/ | "D" f "A"e  e/g/f/e/ |
"D" dB AF | "D" A/B/A/F/ AA | "D" dd "A" ed/e/ | "D" f"G"d "D"d d/e/ |
|: | "D" f f/e/ fg | "D" a2 gf | "Em" eb b>a | "A7" be e/g/f/e/ |
"D" dB AF | "D" A/B/A/F/ AA | "D" dd "A" ed/e/ | [12 "D" f "G"d "D" d d/e/ :|[3 "D" f "G"d "D" d f/e/ ||
W: Morris Formula A.(AB3)3.A
